src/assets/duotone/DocumentForward.svg

<svg width="24" height="24" viewBox="0 0 24 24"  xmlns="http://www.w3.org/2000/svg">
<path opacity="0.4" d="M20.5 10.19H17.61C15.24 10.19 13.31 8.26 13.31 5.89V3C13.31 2.45 12.86 2 12.31 2H8.07C4.99 2 2.5 4 2.5 7.57V16.43C2.5 20 4.99 22 8.07 22H15.93C19.01 22 21.5 20 21.5 16.43V11.19C21.5 10.64 21.05 10.19 20.5 10.19Z" />
<path d="M15.8002 2.21048C15.3902 1.80048 14.6802 2.08048 14.6802 2.65048V6.14048C14.6802 7.60048 15.9202 8.81048 17.4302 8.81048C18.3802 8.82048 19.7002 8.82048 20.8302 8.82048C21.4002 8.82048 21.7002 8.15048 21.3002 7.75048C19.8602 6.30048 17.2802 3.69048 15.8002 2.21048Z" />
<path d="M11 17.7504C10.81 17.7504 10.62 17.6804 10.47 17.5304C10.18 17.2404 10.18 16.7604 10.47 16.4704L11.19 15.7504H7C6.59 15.7504 6.25 15.4104 6.25 15.0004C6.25 14.5904 6.59 14.2504 7 14.2504H11.19L10.47 13.5304C10.32 13.3804 10.25 13.1904 10.25 13.0004C10.25 12.8104 10.32 12.6204 10.47 12.4704C10.76 12.1804 11.24 12.1804 11.53 12.4704L13.53 14.4704C13.66 14.6004 13.73 14.7704 13.74 14.9304C13.74 14.9804 13.74 15.0404 13.74 15.0904C13.72 15.2304 13.66 15.3604 13.56 15.4804C13.55 15.4904 13.53 15.5104 13.52 15.5204L11.52 17.5204C11.38 17.6804 11.19 17.7504 11 17.7504Z" />
</svg>

<?xml version="1.0" encoding="UTF-8"?>
<svg width="24" height="24" viewBox="0 0 24 24" xmlns="http://www.w3.org/2000/svg">
 <path d="m20.5 10.19h-2.89c-2.37 0-4.3-1.93-4.3-4.3v-2.89c0-0.55-0.45-1-1-1h-4.24c-3.08 0-5.57 2-5.57 5.57v8.86c0 3.57 2.49 5.57 5.57 5.57h7.86c3.08 0 5.57-2 5.57-5.57v-5.24c0-0.55-0.45-1-1-1z" opacity=".4"/>
 <path d="m15.8 2.2105c-0.41-0.41-1.12-0.13-1.12 0.44v3.49c0 1.46 1.24 2.67 2.75 2.67 0.95 0.01 2.27 0.01 3.4 0.01 0.57 0 0.87-0.67 0.47-1.07-1.44-1.45-4.02-4.06-5.5-5.54z"/>
 <path d="m11 17.75c-0.19 0-0.38-0.07-0.53-0.22-0.29-0.29-0.29-0.77 0-1.06l0.72-0.72h-4.19c-0.41 0-0.75-0.34-0.75-0.75s0.34-0.75 0.75-0.75h4.19l-0.72-0.72c-0.15-0.15-0.22-0.34-0.22-0.53s0.07-0.38 0.22-0.53c0.29-0.29 0.77-0.29 1.06 0l2 2c0.13 0.13 0.2 0.3 0.21 0.46v0.16c-0.02 0.14-0.08 0.27-0.18 0.39l-2.04 2.04c-0.14 0.16-0.33 0.23-0.52 0.23z"/>
</svg>
